X:1
T:It Is Wonderful to Me!
T:It Is Wonderful to Me!
T:Edward C. Avis
T:Edward C. Avis, 1889
T:Public Domain Courtesy of the Cyber Hymnal™
C:Edward C. Avis
Z:Public Domain
Z:Courtesy of the Cyber Hymnal™
%%score ( 1 2 ) ( 3 4 )
L:1/8
Q:1/4=95
M:4/4
K:G
V:1 treble 
V:2 treble 
V:3 bass 
V:4 bass 
V:1
 [GB]2 [GB][Gc] [GB][DA] [DG]2 | [Gd]2 [Gd][Ge] [Gd]4 | [Ge]2 [Ge][Ge] [Gd][Gd][Gd][GB] | %3
w: 1.~Once was I lost in sin,|Now I can see;|Oh, what a change took place, When|
w: 2.~He bore my load of sin,|On Cal- v’ry’s tree,|Je- sus, His life- blood gave To|
w: 3.~If saved you now would be,|Trust Him to- day;|Won- drous will be the change When|
 [FA]2 ^c2 [Fd]4 ||"^Refrain" [Gd]2 [Gd][Gd] [Ge][Gd] [GB]2 | [EA][EG][EG][CE] [B,D]4 | %6
w: grace found me.|||
w: set me free.|Oh, it is won- der- ful,|won- der- ful to me!|
w: you o- bey.|||
 DDDD [DG][EG] [DG]2 | [FA][FA][EA][GB] [FA]4 | [Gd]2 [Gd][Gd] [Ge][Gd] [GB]2 | %9
w: |||
w: Out of dark- ness in- to light,|I from sin am free!|Oh, it is won- der- ful,|
w: |||
 [EA][EG][EG][CE] [B,D]4 | [DG][DG][DG][FA] [GB][Gd][Gd][Gc] | [GB]2 [DA]2 [DG]4 |] %12
w: |||
w: won- der- ful to me!|Out of dark- ness in- to light, And|li- ber- ty!|
w: |||
V:2
 x8 | x8 | x8 | x2 (EG) x4 || x8 | x8 | DDDD x4 | x8 | x8 | x8 | x8 | x8 |] %12
V:3
 [G,D]2 [G,D][G,E] [G,D][G,C] [G,B,]2 | [G,B,]2 [G,B,][G,C] [G,B,]4 | %2
 [C,C]2 [C,C][C,C] [G,C][G,B,][G,B,][G,D] | [A,D]2 [A,,A,]2 [D,A,]4 || %4
 [G,B,]2 [G,B,][G,B,] [G,C][G,B,] [G,D]2 | [C,C][C,C][C,C][E,G,] G,4 | %6
 [G,B,][G,B,][G,B,][G,B,] [G,B,][G,C] [G,B,]2 | [D,D][D,D][A,,^C][A,,C] [D,D]4 | %8
 [G,B,]2 [G,B,][G,B,] [G,C][G,B,] [G,D]2 | [C,C][C,C][C,C][E,G,] G,4 | %10
 [G,B,][G,B,][G,B,][D,D] [G,D][G,B,][G,B,][C,E] | [D,D]2 [D,C]2 [G,,G,B,]4 |] %12
V:4
 x8 | x8 | x8 | x8 || x8 | x4 G,4 | x8 | x8 | x8 | x4 G,4 | x8 | x8 |] %12

